X:1
T:Title
%%score { 1 | 2 }
L:1/8
Q:1/4=100
M:6/8
K:Eb
V:1 treble nm="Grand Piano"
V:2 bass 
V:1
 B>=AB c2 B | B3 G3 | [DF]3 [Dc]3 | B3 .G3 | B>=AB c2 B | B3 [Gc]3 | [Fd]3 [Ec]3 | [DB]6 | %8
w: R.~Frank~Lehman * * * *||||||||
 [FA]>[=EG][FA] [GB]2 [FA] | [B,EG]3 [EGB]3 | [DFA]>[=EG][FA] [B,Ac]2 [B,GB] | [B,GB]3 .[B,EG]3 | %12
w: ||||
 [Ge]3 [EB]2 [EG] | [CF]2 [CA] [Ed]2 [Ec] | .[EB]3 .D3 | E6 |] %16
w: ||||
V:2
 [E,G,E]>[E,_G,E][E,=G,E] [E,A,E]2 [E,G,E] | [E,G,E]3 [E,B,E]3 | [B,,B,]3 [B,,A,]3 | %3
 [E,G,E]3 .[E,B,E]3 | [E,G,E]>[E,_G,E][E,=G,E] [E,A,E]2 [E,G,E] | [E,G,E]3 [E,B,]3 | %6
 [F,B,]3 [F,=A,]3 | [B,,B,]6 | [B,,B,]>[B,,B,][B,,B,] [B,,B,]2 [B,,B,] | E,3 E,3 | %10
 B,>B,B, B,,C,D, | E,3 .E,3 | [E,B,]3 [E,G,]2 [E,B,] | [A,,A,]2 [A,,F,] [=A,,_G,]2 [A,,G,] | %14
 .[B,,G,]3 .[B,,A,B,]3 | [E,G,B,]6 |] %16

